!!!PDT:	1923
!!!LANG: Non-Tone
!!!LING_GROUP: Siouan
!!!REG: Dakotas
!!!COM: Anon.
!!!OTL: My Heart Aches Every Day
!!!ODT: <1918//
!!!MPN: Behtake [Otter Woman, Mrs. Little Crow]
!!!MLC: Fort Berthold Reservation, North Dakota, United States of America
!! Song was recorded during either the summer of 1912, 1915, or 1918.
!!!AGN: monody
!!!SOCIAL_FUNCTION: Mandan Garden Songs
!!!AMT: irregular
!!!RWG: Transcribed pitches, durations, and meters are only approximate.
!! Drum not recorded.
**kern
*ICvox
*Ifemale
*clefG2
*k[b-e-a-]
*M2/4
*MM56
8.b-
16b-
=1
4b-
4b-
=2
4b-
8.b-
16g
*M3/4
=3
4g
8g
8g
4e-
*M2/4
=4
2g
=5
8.b-
16b-
4b-
*M3/4
=6
2b-
8a-
16b-
16b-
=7
8.g
16g
8.g
16g
8.g
16g
*M2/4
=8
16g
[8.e-
4e-]
=9
4.e-
8g
=10
4.g
8f
*M3/4
=11
16g
8.f
4f
4e-
=12
2.B-
=13
2.B-
==
*-
!!!CNT: Mandan
!!!TXO: Mandan
!!!OCY: United States
!!!OCL: Frances Densmore
!!!YOR: Frances Densmore, "Mandan and Hidatsa Music",
!!!YOR: Bulletin 80, page 57, No. 15
!!!PPR: Smithsonian Institution, Bureau of American Ethnology
!!!PPR: Government Printing Office
!!!PDT: 1923
!!!PPP: Washington, DC, United States of America
!!!YEC: Electronic Copyright 2000 David Huron
!!!YER: August 2000
!!!YEN: United States of America
!!!ENC: David Huron
!!!RDT: August 16, 2000
!!!EEV: Release 1.0
!!!AIN: tom, vox
